dist/images/jury-bottom.svg

<svg width="1440" height="20" fill="none" xmlns="http://www.w3.org/2000/svg"><g clip-path="url(#clip0)"><path fill="#fff" d="M0-1954h1440V60H0z"/><path d="M600 20h180V10H600v10z" fill="#A21ED8"/><path d="M360 10h120V0H360v10z" fill="#fff"/><path d="M1080 20h60V10h-60v10zM0-1004h1440V10H0v-1014z" fill="#A21ED8"/></g><defs><clipPath id="clip0"><path fill="#fff" transform="translate(0 -1954)" d="M0 0h1440v2014H0z"/></clipPath></defs></svg>

<svg width="1440" height="20" viewBox="0 0 1440 20" fill="none" xmlns="http://www.w3.org/2000/svg">
<g clip-path="url(#clip0)">
<rect width="1440" height="2014" transform="translate(0 -1954)" fill="white"/>
<path d="M600 20H780V10H600V20Z" fill="#A21ED8"/>
<path d="M360 10H480V0H360V10Z" fill="white"/>
<path d="M1080 20H1140V10H1080V20Z" fill="#A21ED8"/>
<path d="M0 -1004H1440V10H0V-1004Z" fill="#A21ED8"/>
</g>
<defs>
<clipPath id="clip0">
<rect width="1440" height="2014" fill="white" transform="translate(0 -1954)"/>
</clipPath>
</defs>
</svg>
